assets/Man white hair/Default/Flat/man_white_hair_flat_default.svg

<svg width="32" height="32" viewBox="0 0 32 32" fill="none" xmlns="http://www.w3.org/2000/svg">
<path d="M25.3101 6.72423L24.5489 6.3383C23.9779 6.04885 23.5021 5.7594 23.1215 5.27698L21.6941 3.82974C20.5522 2.76842 18.9346 2.38249 17.5072 2.86491C16.5556 3.15436 15.5089 3.15436 14.5573 2.86491C13.2251 2.18952 11.7026 2.47897 10.6558 3.44381L8.94299 5.27698C8.4672 5.66292 7.99141 6.04885 7.51562 6.3383L6.75436 6.72423C5.42215 7.39961 4.66089 8.94334 4.85121 10.4871L5.89794 15.9866C5.9931 16.5655 6.01139 18 6.01139 18H25.9887C25.9887 18 25.9762 16.662 26.0714 16.0831L27.1181 10.5836C27.4036 8.94334 26.6424 7.39961 25.3101 6.72423Z" fill="#F3EEF8"/>
<path fill-rule="evenodd" clip-rule="evenodd" d="M26.5 17.6654C26.4987 17.8669 26.5 18 26.5 18H5.5C5.5 18 5.48077 16.5213 5.38074 15.9245L4.28042 10.2553C4.08036 8.66395 4.8806 7.07259 6.28101 6.37638L7.08124 5.97854C7.58139 5.68016 8.08154 5.28232 8.58168 4.88448L10.3822 2.99475C11.4825 2.00015 13.083 1.70177 14.4834 2.39799C15.4837 2.69637 16.584 2.69637 17.5843 2.39799C19.0848 1.90069 20.7853 2.29853 21.9856 3.39259L23.4861 4.88448C23.8862 5.38178 24.3863 5.68016 24.9865 5.97854L25.7867 6.37638C27.1871 7.07259 27.9874 8.66395 27.6873 10.3548L26.587 16.024C26.518 16.4353 26.5028 17.2185 26.5 17.6654ZM25.5118 17C25.5236 16.6219 25.5475 16.1761 25.6007 15.8586L25.6028 15.846L26.704 10.1726C26.9274 8.89622 26.32 7.75827 25.3416 7.27182L24.5413 6.87398C23.9243 6.56721 23.278 6.20058 22.7445 5.55736L21.2969 4.11796C20.3477 3.26242 19.0287 2.97276 17.8989 3.34721L17.8846 3.35196L17.8702 3.35627C16.6834 3.71028 15.3844 3.71028 14.1976 3.35627L14.1152 3.3317L14.0382 3.29343C13.0434 2.79886 11.8954 2.99275 11.0786 3.71357L9.25813 5.62419L9.17724 5.68853C8.69615 6.07125 8.1518 6.5043 7.59358 6.83732L7.5607 6.85694L6.72618 7.27182C5.74227 7.76098 5.13211 8.90999 5.26892 10.0999L6.36487 15.7465L6.36698 15.7592C6.42243 16.09 6.45306 16.588 6.47106 17H25.5118Z" fill="#E1D8EC"/>
<path d="M25.6218 15.0645C25.5475 15.9893 25.4866 17.0185 25.4866 17.0185C26.0868 17.0185 26.4869 16.6207 26.587 16.0239L26.6852 15.5177C27.4788 16.0575 28 16.9679 28 18C28 19.6569 26.6569 21 25 21C23.3431 21 22 19.6569 22 18C22 16.3431 23.3431 15 25 15C25.2132 15 25.4212 15.0222 25.6218 15.0645Z" fill="#FDBB11"/>
<path d="M5.30332 15.5255L5.38074 15.9244C5.48077 16.5212 5.98092 16.919 6.5811 16.919C6.5811 16.919 6.52214 15.9812 6.44949 15.0504C6.62795 15.0173 6.81195 15 7 15C8.65685 15 10 16.3431 10 18C10 19.6569 8.65685 21 7 21C5.34315 21 4 19.6569 4 18C4 16.9729 4.5162 16.0663 5.30332 15.5255Z" fill="#FDBB11"/>
<path d="M6.48943 16.9159C6.51964 16.918 6.55015 16.919 6.58092 16.919C6.58092 16.919 6.48089 15.3277 6.38086 14.2336C6.38086 13.7363 6.58092 13.1396 6.98104 12.8412L7.28112 12.5428C7.78127 12.145 7.98133 11.5482 7.98133 10.9515V9.3601C7.98133 8.8628 8.28142 8.46496 8.78156 8.3655C9.98192 8.06712 12.4826 7.56982 16.0837 7.56982C19.6848 7.56982 22.1855 8.06712 23.3858 8.3655C23.786 8.46496 24.1861 8.8628 24.1861 9.3601V10.9515C24.1861 11.5482 24.4862 12.145 24.8863 12.5428L25.0863 12.9406C25.4865 13.3385 25.6865 13.8358 25.6865 14.3331C25.5865 15.3277 25.4865 17.0185 25.4865 17.0185C25.4978 17.0185 25.509 17.0183 25.5202 17.0181L25.0244 24.4C24.7251 27.7 22.1308 30 19.0376 30H13.0507C9.85773 30 7.36321 27.7 7.06387 24.4L6.48943 16.9159Z" fill="#FFC83D"/>
<path d="M15.2872 17.5266L14.2963 20.6961C14.0941 21.348 14.5794 22 15.2669 22H16.7331C17.4206 22 17.9059 21.338 17.7037 20.6961L16.7128 17.5266C16.5005 16.8245 15.5096 16.8245 15.2872 17.5266Z" fill="#ED9200"/>
<path d="M16 23.8954C15.0538 23.8954 14.1644 23.6727 13.417 23.2831C13.1615 23.1532 12.8871 23.4408 13.048 23.6727C13.6724 24.6191 14.7605 25.25 16 25.25C17.2395 25.25 18.3276 24.6191 18.952 23.6727C19.1129 23.4315 18.8385 23.1532 18.583 23.2831C17.8356 23.6727 16.9556 23.8954 16 23.8954Z" fill="#990839"/>
<path d="M9.01481 17.3673C9.30113 16.2403 10.3279 15.4 11.5423 15.4C12.8061 15.4 13.8625 16.2996 14.0994 17.4958C14.1488 17.7628 13.9415 18 13.6749 18H9.51834C9.18266 18 8.93583 17.6936 9.01481 17.3673Z" fill="white"/>
<path d="M22.9852 17.3673C22.6989 16.2403 21.6721 15.4 20.4577 15.4C19.1841 15.4 18.1375 16.2996 17.9006 17.4958C17.8512 17.7628 18.0585 18 18.3251 18H22.4817C22.8173 18 23.0642 17.6936 22.9852 17.3673Z" fill="white"/>
<path d="M10.2588 17.5568C10.2588 16.6311 11.0091 15.8925 11.9273 15.8925C12.8455 15.8925 13.586 16.6311 13.586 17.5568C13.586 17.7144 13.5663 17.8622 13.5268 18H10.318C10.2785 17.8523 10.2588 17.7144 10.2588 17.5568Z" fill="#7D4533"/>
<path d="M21.7412 17.5568C21.7412 16.6311 20.9908 15.8925 20.0726 15.8925C19.1545 15.8925 18.4041 16.6311 18.414 17.5568C18.414 17.7144 18.4337 17.8622 18.4732 18H21.682C21.7214 17.8523 21.7412 17.7144 21.7412 17.5568Z" fill="#7D4533"/>
<path d="M11.9273 16.6113C12.4506 16.6113 12.8751 17.0348 12.8751 17.5568C12.8751 17.7144 12.8356 17.8621 12.7665 18H11.0881C11.019 17.8621 10.9795 17.7144 10.9795 17.5568C10.9795 17.0348 11.404 16.6113 11.9273 16.6113Z" fill="black"/>
<path d="M20.0627 16.6113C19.5394 16.6113 19.1149 17.0348 19.1149 17.5568C19.1149 17.7144 19.1544 17.8621 19.2235 18H20.9019C20.971 17.8621 21.0105 17.7144 21.0105 17.5568C21.0105 17.0348 20.586 16.6113 20.0627 16.6113Z" fill="black"/>
<path d="M11.651 16.92C11.651 17.0857 11.5184 17.22 11.3548 17.22C11.1912 17.22 11.0586 17.0857 11.0586 16.92C11.0586 16.7543 11.1912 16.62 11.3548 16.62C11.5184 16.62 11.651 16.7543 11.651 16.92Z" fill="white"/>
<path d="M19.8456 16.92C19.8456 17.0857 19.713 17.22 19.5494 17.22C19.3858 17.22 19.2532 17.0857 19.2532 16.92C19.2532 16.7543 19.3858 16.62 19.5494 16.62C19.713 16.62 19.8456 16.7543 19.8456 16.92Z" fill="white"/>
<path d="M8.96262 12.9869L8.96407 12.9857L8.96563 12.9844L8.9691 12.9815L8.97747 12.9747L8.99983 12.9569C9.01722 12.9433 9.0396 12.9262 9.06686 12.9062C9.12132 12.8663 9.19557 12.8147 9.28864 12.7564C9.47432 12.6401 9.73791 12.4952 10.0714 12.3634C10.7408 12.0987 11.6968 11.8855 12.855 12.0684C13.3979 12.1541 13.7686 12.6637 13.6828 13.2067C13.5971 13.7496 13.0875 14.1202 12.5445 14.0345C11.8027 13.9174 11.2087 14.0542 10.8032 14.2145C10.5991 14.2952 10.444 14.3815 10.3453 14.4433C10.2961 14.4741 10.2618 14.4983 10.2432 14.5119C10.2355 14.5176 10.2306 14.5213 10.2285 14.523C9.80634 14.8671 9.18475 14.808 8.83519 14.3886C8.48331 13.9663 8.54036 13.3388 8.96262 12.9869Z" fill="#F3EEF8"/>
<path d="M22.9362 12.9863L22.9339 12.9844L22.9305 12.9815L22.9221 12.9747L22.8997 12.9569C22.8824 12.9433 22.86 12.9262 22.8327 12.9062C22.7782 12.8663 22.704 12.8147 22.6109 12.7564C22.4252 12.6401 22.1617 12.4952 21.8282 12.3634C21.1588 12.0987 20.2028 11.8855 19.0446 12.0684C18.5016 12.1541 18.131 12.6637 18.2167 13.2067C18.3025 13.7496 18.8121 14.1202 19.355 14.0345C20.0968 13.9174 20.6909 14.0542 21.0964 14.2145C21.3004 14.2952 21.4556 14.3815 21.5543 14.4433C21.6034 14.4741 21.6378 14.4983 21.6563 14.5119C21.6641 14.5176 21.669 14.5213 21.6711 14.523C22.0932 14.8671 22.7148 14.808 23.0644 14.3886C23.4163 13.9663 23.3585 13.3382 22.9362 12.9863Z" fill="#F3EEF8"/>
</svg>

<svg xmlns="http://www.w3.org/2000/svg" width="32" height="32" fill="none"><path fill="#F3EEF8" d="m25.31 6.724-.761-.386c-.571-.29-1.047-.579-1.427-1.061L21.694 3.83c-1.142-1.062-2.76-1.448-4.187-.965a5.12 5.12 0 0 1-2.95 0c-1.332-.675-2.854-.386-3.901.579L8.943 5.277c-.476.386-.952.772-1.427 1.061l-.762.386c-1.332.676-2.093 2.22-1.903 3.763l1.047 5.5c.095.579.113 2.013.113 2.013H25.99s-.013-1.338.082-1.917l1.047-5.5c.286-1.64-.476-3.183-1.808-3.859Z"/><path fill="#E1D8EC" fill-rule="evenodd" d="M26.5 17.665V18h-21s-.02-1.479-.12-2.075l-1.1-5.67c-.2-1.591.6-3.182 2.001-3.879l.8-.397c.5-.299 1-.697 1.5-1.095l1.801-1.89c1.1-.994 2.701-1.292 4.101-.596 1 .298 2.101.298 3.101 0 1.5-.497 3.201-.1 4.402.995l1.5 1.491c.4.498.9.796 1.5 1.095l.8.397c1.401.697 2.201 2.288 1.901 3.979l-1.1 5.669c-.069.411-.084 1.194-.087 1.641ZM25.512 17c.012-.378.035-.824.089-1.141l.002-.013 1.101-5.673c.223-1.277-.384-2.415-1.362-2.901l-.8-.398c-.618-.307-1.264-.673-1.798-1.317l-1.447-1.439c-.95-.856-2.268-1.145-3.398-.77l-.014.004-.015.004a6.483 6.483 0 0 1-3.672 0l-.083-.024-.077-.039c-.995-.494-2.143-.3-2.96.42l-1.82 1.911-.08.065c-.482.382-1.026.815-1.584 1.148l-.033.02-.835.415C5.742 7.76 5.132 8.91 5.27 10.1l1.096 5.646.002.013c.055.331.086.829.104 1.241h19.04Z" clip-rule="evenodd"/><path fill="#FDBB11" d="M25.622 15.065c-.075.924-.135 1.954-.135 1.954.6 0 1-.398 1.1-.995l.098-.506a3 3 0 1 1-1.063-.453ZM5.303 15.525l.078.4c.1.596.6.994 1.2.994 0 0-.059-.938-.132-1.869a3 3 0 1 1-1.146.475Z"/><path fill="#FFC83D" d="m6.49 16.916.09.003s-.1-1.591-.2-2.685c0-.498.2-1.094.601-1.393l.3-.298c.5-.398.7-.995.7-1.591V9.36c0-.497.3-.895.8-.994 1.2-.299 3.702-.796 7.303-.796 3.6 0 6.102.497 7.302.796.4.099.8.497.8.994v1.591c0 .597.3 1.194.7 1.592l.2.398c.4.397.6.895.6 1.392-.1.995-.2 2.685-.2 2.685h.034l-.496 7.382c-.299 3.3-2.893 5.6-5.986 5.6H13.05c-3.193 0-5.688-2.3-5.987-5.6l-.575-7.484Z"/><path fill="#ED9200" d="m15.287 17.527-.99 3.17a1.005 1.005 0 0 0 .97 1.303h1.466c.688 0 1.173-.662.97-1.304l-.99-3.17c-.213-.701-1.203-.701-1.426 0Z"/><path fill="#990839" d="M16 23.895a5.603 5.603 0 0 1-2.583-.612c-.255-.13-.53.158-.369.39A3.53 3.53 0 0 0 16 25.25a3.53 3.53 0 0 0 2.952-1.577c.16-.241-.114-.52-.369-.39a5.574 5.574 0 0 1-2.583.612Z"/><path fill="#fff" d="M9.015 17.367a2.607 2.607 0 0 1 5.085.128.428.428 0 0 1-.425.505H9.518a.512.512 0 0 1-.503-.633ZM22.985 17.367a2.617 2.617 0 0 0-2.527-1.967 2.6 2.6 0 0 0-2.557 2.096.428.428 0 0 0 .424.504h4.157a.512.512 0 0 0 .503-.633Z"/><path fill="#7D4533" d="M10.259 17.557a1.664 1.664 0 1 1 3.268.443h-3.209a1.655 1.655 0 0 1-.06-.443ZM21.741 17.557c0-.926-.75-1.664-1.668-1.664a1.65 1.65 0 0 0-1.659 1.664c0 .157.02.305.06.443h3.208c.04-.148.06-.286.06-.443Z"/><path fill="#000" d="M11.927 16.611a.947.947 0 0 1 .84 1.389h-1.679a.947.947 0 0 1 .84-1.389ZM20.063 16.611a.947.947 0 0 0-.84 1.389h1.679a.947.947 0 0 0-.84-1.389Z"/><path fill="#fff" d="M11.651 16.92c0 .166-.133.3-.296.3a.298.298 0 0 1-.296-.3c0-.166.132-.3.296-.3.163 0 .296.134.296.3ZM19.846 16.92c0 .166-.133.3-.297.3a.298.298 0 0 1-.296-.3c0-.166.133-.3.296-.3.164 0 .297.134.297.3Z"/><path fill="#F3EEF8" d="m8.963 12.987.001-.001.002-.002.003-.002.008-.007.023-.018c.017-.014.04-.03.067-.05a3.7 3.7 0 0 1 .222-.15c.185-.117.449-.262.782-.394a5.282 5.282 0 0 1 2.784-.295.995.995 0 1 1-.31 1.966 3.293 3.293 0 0 0-1.742.18 2.832 2.832 0 0 0-.56.298.995.995 0 1 1-1.28-1.525ZM22.936 12.986l-.002-.002-.004-.002-.008-.007-.022-.018a3.705 3.705 0 0 0-.289-.2 4.814 4.814 0 0 0-.783-.394 5.282 5.282 0 0 0-2.783-.295.995.995 0 1 0 .31 1.966 3.294 3.294 0 0 1 1.741.18 2.836 2.836 0 0 1 .56.298l.015.011a.995.995 0 0 0 1.265-1.537Z"/></svg>
